blockchains/ethereum/assets/0x3d166dd13dFdca66879bdd45dc224D07C8855CdB/logo.svg

<svg fill="none" height="250" viewBox="0 0 250 250" width="250" xmlns="http://www.w3.org/2000/svg" xmlns:xlink="http://www.w3.org/1999/xlink"><linearGradient id="a" gradientUnits="userSpaceOnUse" x1="89.7618" x2="128.915" y1="13.8501" y2="231.006"><stop offset="0" stop-color="#27d3a2"/><stop offset="1" stop-color="#9388fd"/></linearGradient><clipPath id="b"><path d="m0 0h250v250h-250z"/></clipPath><g clip-path="url(#b)"><path d="m125.017 250c69.028 0 124.986-55.938 124.986-124.942 0-69.0027-55.958-124.940812-124.986-124.940812-69.0282 0-124.9864824 55.938112-124.9864824 124.940812 0 69.004 55.9582824 124.942 124.9864824 124.942z" fill="#edf0f2"/><path d="m204.364 221.476c-19.056 15.727-42.411 25.398-67.037 27.743-32.933 3.223-65.8651-6.741-91.5659-27.743-25.6032-21.003-41.82505-51.286-45.147595-84.304-2.443045-24.617 2.443045-49.3318 14.071995-71.1159 11.6289-21.7841 29.512-39.6608 51.304-51.2855 21.792-11.62471 46.5155-16.60674 71.1415-14.164569 24.626 2.442169 47.884 12.015469 67.037 27.742969l-25.212 30.7713c-12.997-10.6478-28.926-17.2905-45.734-18.8535-16.808-1.6607-33.6161 1.7584-48.4699 9.671-14.8537 7.9126-26.9712 20.1234-34.9844 34.9718-7.9155 14.8484-11.2381 31.7484-9.5768 48.4524 2.2476 22.468 13.2902 43.178 30.7824 57.44 17.4923 14.36 39.9687 21.1 62.4447 18.853 16.808-1.66 32.639-8.303 45.636-18.951z" fill="url(#a)"/><path d="m125.404 227.333c56.386 0 102.022-45.717 102.022-101.985 0-56.365-45.636-102.0824-102.022-102.0824-56.3852 0-102.1191 45.7174-102.1191 102.0824s45.7339 101.985 102.1191 101.985z" fill="#fff"/><path d="m126.094 144.301 32.346-18.756-38.404-19.733z" fill="#aab8c1"/><path d="m93.8416 125.646 32.3464 18.755v-34.581z" fill="#aab8c1"/><path d="m126.091 72.9922-32.3461 52.6528 42.3131-18.853z" fill="#283947"/><path d="m126.088 72.9922v38.1958l32.346 14.457z" fill="#657786"/><path d="m126.09 176.342 4.202-23.64-36.4504-21.1z" fill="#283947"/><path d="m126.088 150.357v25.985l32.346-44.74z" fill="#657786"/></g></svg>

<svg width="250" height="250" viewBox="0 0 250 250" fill="none" xmlns="http://www.w3.org/2000/svg">
<g clip-path="url(#clip0_48_13129)">
<path d="M125.017 250C194.045 250 250.003 194.062 250.003 125.058C250.003 56.0553 194.045 0.117188 125.017 0.117188C55.9888 0.117188 0.0305176 56.0553 0.0305176 125.058C0.0305176 194.062 55.9888 250 125.017 250Z" fill="#EDF0F2"/>
<path d="M204.364 221.476C185.308 237.203 161.953 246.874 137.327 249.219C104.394 252.442 71.4619 242.478 45.7611 221.476C20.1579 200.473 3.93605 170.19 0.613505 137.172C-1.82954 112.555 3.05655 87.8402 14.6855 66.0561C26.3144 44.272 44.1975 26.3953 65.9895 14.7706C87.7815 3.14589 112.505 -1.83614 137.131 0.606031C161.757 3.0482 185.015 12.6215 204.168 28.349L178.956 59.1203C165.959 48.4725 150.03 41.8298 133.222 40.2668C116.414 38.6061 99.6059 42.0252 84.7521 49.9378C69.8984 57.8504 57.7809 70.0612 49.7677 84.9096C41.8522 99.758 38.5296 116.658 40.1909 133.362C42.4385 155.83 53.4811 176.54 70.9733 190.802C88.4656 205.162 110.942 211.902 133.418 209.655C150.226 207.995 166.057 201.352 179.054 190.704L204.364 221.476Z" fill="url(#paint0_linear_48_13129)"/>
<path d="M125.404 227.333C181.79 227.333 227.426 181.616 227.426 125.348C227.426 68.983 181.79 23.2656 125.404 23.2656C69.0188 23.2656 23.2849 68.983 23.2849 125.348C23.2849 181.713 69.0188 227.333 125.404 227.333Z" fill="white"/>
<path d="M126.094 144.301L158.44 125.545L120.036 105.812L126.094 144.301Z" fill="#AAB8C1"/>
<path d="M93.8416 125.646L126.188 144.401V109.82L93.8416 125.646Z" fill="#AAB8C1"/>
<path d="M126.091 72.9922L93.7449 125.645L136.058 106.792L126.091 72.9922Z" fill="#283947"/>
<path d="M126.088 72.9922V111.188L158.434 125.645L126.088 72.9922Z" fill="#657786"/>
<path d="M126.09 176.342L130.292 152.702L93.8416 131.602L126.09 176.342Z" fill="#283947"/>
<path d="M126.088 150.357V176.342L158.434 131.602L126.088 150.357Z" fill="#657786"/>
</g>
<defs>
<linearGradient id="paint0_linear_48_13129" x1="89.7618" y1="13.8501" x2="128.915" y2="231.006" gradientUnits="userSpaceOnUse">
<stop stop-color="#27D3A2"/>
<stop offset="1" stop-color="#9388FD"/>
</linearGradient>
<clipPath id="clip0_48_13129">
<rect width="250" height="250" fill="white"/>
</clipPath>
</defs>
</svg>
